X:1
T:Sweeney's  "137 bpm"
M:C|
L:1/8
Q:80
C:Arranged by Dave Rickard
S:Polka
K:HP
{g}ef/2e/2ce | \
{g}Ae{gcd}ce | \
{g}f/2g/2a/2f/2{gef}e3/2c/2 |
{g}BA{gBd}B2 | \
{g}ef/2e/2ce | \
{g}Ae{gcd}ce |
{g}f/2g/2a/2f/2{gef}e3/2c/2 | \
{g}B{G}A{GAG}A2 :| \
{g}ce{ag}a3/2f/2 |
{g}ec{g}BA/2B/2 | \
{g}ce{ag}a3/2f/2 | \
{g}ec{gBd}B2 |
{g}ce{g}f/2g/2a/2f/2 | \
{g}ec{gBd}BA | \
e{gef}ecB |
{g}BA{GAG}A2 :|
